X:1
T:Showers of Blessing (MacLagan), 87.87.3
T:Showers of Blessing (MacLagan), 87.87.3
T:William Daylrymple MacLagan, 1884
T:Public Domain Courtesy of the Cyber Hymnal™
C:William Daylrymple MacLagan, 1884
Z:Public Domain
Z:Courtesy of the Cyber Hymnal™
%%score ( 1 2 ) 3
L:1/8
Q:1/4=112
M:4/4
K:Eb
V:1 treble 
V:2 treble 
V:3 bass 
V:1
 [EB]2 [GB]2 [^Fc]2 [GB]2 | [EA]2 [EG]2 [DF]2 E2 | [EB]2 [GB]2 [^Fc]2 [GB]2 | %3
 [EA]2 [EG]2 ([EG]2 [DF]2) | [EG]2 [DB]2 [Ee]2 [EB]2 | [Ed]2 [Ec]2 [DB]2 [FA]2 | %6
 [EG]2 [EB]2 [EB]2 [FA]2 | [EG]2 [DF]2 E4 | ([CA]4 [DG]2) [DF]2 | E8 |] %10
V:2
 x8 | x6 E2 | x8 | x8 | x8 | x8 | x8 | x4 E4 | x8 | E8 |] %10
V:3
 [E,G,]2 [E,B,]2 [E,=A,]2 [E,B,]2 | [C,C]2 [E,B,]2 [B,,A,]2 [E,G,]2 | %2
 [G,B,]2 [E,B,]2 [E,=A,]2 [E,B,]2 | [C,C]2 [E,B,]2 [B,,B,]4 | [E,B,]2 [F,B,]2 [G,B,]2 [E,G,]2 | %5
 [F,=A,]2 [F,A,]2 [B,,B,]2 [D,B,]2 | [E,B,]2 [G,,_D]2 [A,,C]2 [A,,C]2 | [B,,B,]2 [B,,A,]2 [C,G,]4 | %8
 ([F,A,]4 [B,,B,]2) [B,,A,]2 | [E,G,]8 |] %10

